X:1
T:St. Ethelwald, SM
T:St. Ethelwald, SM
T:William Henry Monk, 1861
T:Public Domain Courtesy of the Cyber Hymnal™
C:William Henry Monk, 1861
Z:Public Domain
Z:Courtesy of the Cyber Hymnal™
%%score ( 1 2 ) ( 3 4 )
L:1/8
Q:1/4=115
M:4/4
K:G
V:1 treble 
V:2 treble 
V:3 bass 
V:4 bass 
V:1
 [Gd]2 | c2 [GB]2 [GA]2 (Bc) | [GB]6 [DB]2 | [DA]2 D2 [DE]2 [^CE]2 | D6 D2 | %5
 [DE]2 [CF]2 [B,G]2 B2 | [EA]2 [EA]2 [^DB]2 [EB]2 | c2 [GB]2 [GA]2 [FA]2 | G6 |] %9
V:2
 x2 | (EF) x3 F2 x | x8 | x2 D2 x4 | D6 D2 | x6 (GF) | x8 | (EF) x6 | G6 |] %9
V:3
 [G,B,]2 | [A,C]2 [B,D]2 [CE]2 D2 | [G,D]6 G,2 | [F,A,]2 ([G,B,][F,A,]) [G,B,]2 A,2 | %4
 [D,F,]6 [D,F,]2 | [C,G,]2 [A,,A,]2 [E,G,]2 G,2 | (A,G,) (F,E,) [B,,F,]2 [E,^G,]2 | %7
 [A,,A,]2 G,2 (G,A,) (B,C) | [G,,B,]6 |] %9
V:4
 x2 | x6 D2 | x6 G,2 | x6 A,2 | x8 | x6 (E,D,) | C,2 C,2 x4 | x2 (B,,C,) D,2 D,2 | x6 |] %9

